X: 29279
T: New Phone, The
R: hornpipe
M: 4/4
K: Fmajor
AB=B|(3cec dc Acfe|(3dfd fd Bdgf|efga bcde|(3fag (3fed cAB=B|
(3cec dc Acfe|(3dfd fd Bdgf|(3edc bg ecBG|1 (3FGF EG F:|2 (3FGF EG F2 z B||
|:Ad (3dfd fedf|eAag feda|bagb agfa|gfed (3^cea A2|
Ad (3dfd fedf|eAag feda|bagf ecBG|1 (3FGF EG F3B:|2 (3FGF EG F4||

